X: 10
T: Kerfank 1870
R:Andro
O:Brittany
N:The title comes from the Breton band Tri Yann. It means "Camp of mud".
N:octave shifts ad lib
N:tempo unknown, seems to work at any speed
N:Comments from Tannahill Weavers: "We have it on authority from good friends
N:and "partners in musical crime" Bleizi Ruz that this is an Andro, a Breton
N:dance, which, unfortunately, nobody seems to know the title of!"
Z:Jack Campin <jc@purr.demon.co.uk> abcusers 2002-2-27
M:2/4
L:1/16
K:E Minor
|: E2B2 B2AB | c2B2 AGFG | A2A2 B2A2 | GFEF G2F2 |
|  E2B2 B2AB | c2B2 AGFG | A2A2 B2A2 | GFEF E4  :|
|: E2E2 F2GF | E2E2 FEFG | A2A2 B2A2 | GFEF G2F2 |
|  E2E2 F2GF | E2E2 FEFG | A2A2 B2A2 | GFEF E4  :|
%%sep 1 1 500
